**kern	**kern	**dynam
*part1	*part1	*part1
*staff2	*staff1	*
*I"Piano	*	*
*clefF4	*clefG2	*
*k[]	*k[]	*
=1	=1	=1
!	!	!LO:DY:a
2BBB 2BB	8r	pp
.	4g#X 4ee	.
.	4g# 4ee	.
4G#X 4e	.	.
.	[8g# [8ee	.
=	=	=
2B 2f#X	8g#] 8ee]	<
.	4b 4ff#X	.
.	4b 4ff#	.
4B 4f#	.	.
.	[8b [8ff#	.
*clefG2	*	*
=	=	=
2g#X 2b	8b] 8ff#]	.
.	4gg#X 4bb	[
.	4gg# 4bb	.
4e 4g#	.	.
.	[8ee [8gg#	.
=	=	=
2B 2f#X	8ee] 8gg#]	.
.	4b 4ff#X	>
.	4b 4ff#	.
4r	.	.
.	[8b [8ff#	.
*clefF4	*	*
=	=	=
2BBB 2BB	8b] 8ff#]	.
.	4gn 4ee	] pp
.	4g 4ee	.
*clefG2	*	*
4Gn 4e	.	.
.	[8g [8ee	.
=	=	=
2B 2f#X	8g] 8ee]	.
.	4b 4ff#X	.
.	4b 4ff#	<
4B 4f#	.	.
.	[8b [8ff#	.
=	=	=
2g 2b	8b] 8ff#]	.
.	4gg 4bb	[
.	4gg 4bb	>
4e 4g	.	.
.	[8ee [8gg	.
=	=	=
*-	*-	*-
!!!system-decoration: {(s1,s2)}
